icons/ok.svg

<svg width="48" height="48" viewBox="0 0 48 48" fill="none" xmlns="http://www.w3.org/2000/svg">
<path d="M21.2857 21.9149C21.3934 22.3134 21.4323 22.7504 21.3023 23.1081C21.2512 23.2488 21.1398 23.3591 20.9987 23.4089C20.8576 23.4586 20.7016 23.4426 20.5736 23.3652C20.3119 23.2069 20.0523 23.0046 19.8085 22.8078C19.7426 22.7545 19.6781 22.7018 19.6143 22.6498L19.6135 22.6491C19.4331 22.502 19.2585 22.3595 19.0791 22.2253C18.5774 21.8499 18.1791 21.6523 17.8345 21.6692C17.4717 21.687 17.0342 21.94 16.4719 22.3841C16.3135 22.5092 16.1434 22.6513 15.9668 22.799C15.579 23.1232 15.1593 23.4741 14.7599 23.7305C14.6163 23.8228 14.4355 23.8353 14.2804 23.7638C14.1254 23.6924 14.0175 23.5467 13.9944 23.3776C13.9445 23.013 14.0202 22.5568 14.1629 22.1111C14.3095 21.6531 14.5433 21.1551 14.8578 20.6948C15.4778 19.7877 16.4842 18.9329 17.831 18.9895C19.1318 19.0441 20.0947 19.8064 20.6753 20.6356C20.9666 21.0515 21.1734 21.4993 21.2857 21.9149Z" fill="black"/>
<path d="M26.6298 21.9149C26.5221 22.3134 26.4832 22.7504 26.6132 23.1081C26.6644 23.2488 26.7758 23.3591 26.9169 23.4089C27.058 23.4586 27.2139 23.4426 27.342 23.3652C27.6036 23.2069 27.8632 23.0046 28.107 22.8078C28.1729 22.7545 28.2375 22.7019 28.3013 22.6498L28.3026 22.6487C28.483 22.5016 28.6571 22.3595 28.8365 22.2253C29.3381 21.8499 29.7365 21.6523 30.081 21.6692C30.4438 21.687 30.8813 21.94 31.4436 22.3841C31.602 22.5092 31.7721 22.6513 31.9487 22.799C32.3365 23.1232 32.7563 23.4741 33.1556 23.7305C33.2993 23.8228 33.4801 23.8353 33.6351 23.7638C33.7901 23.6924 33.898 23.5467 33.9211 23.3776C33.971 23.013 33.8954 22.5568 33.7527 22.1111C33.606 21.6531 33.3723 21.1551 33.0577 20.6948C32.4377 19.7877 31.4313 18.9329 30.0845 18.9895C28.7838 19.0441 27.8208 19.8064 27.2402 20.6356C26.9489 21.0515 26.7421 21.4993 26.6298 21.9149Z" fill="black"/>
<path fill-rule="evenodd" clip-rule="evenodd" d="M30.3684 31.494C30.572 31.2447 30.7335 30.9263 30.8397 30.6162C30.9454 30.3077 31.0289 29.913 30.9905 29.5094C30.9508 29.0927 30.7608 28.5534 30.2113 28.2322C29.7031 27.9351 29.1149 27.9636 28.5945 28.0941L28.5811 28.0977C26.1852 28.7337 25.0121 28.9969 23.8768 28.9918C22.7388 28.9867 21.5915 28.7127 19.2383 28.0992C18.7837 27.9714 18.2429 27.9403 17.7618 28.2295C17.2647 28.5282 17.0803 29.0172 17.0244 29.3835C16.9688 29.7483 17.0156 30.1111 17.0909 30.4047C17.1668 30.7004 17.292 31.0058 17.4623 31.2592C17.5785 31.4323 17.7509 31.6112 17.8133 31.6759C17.8232 31.6862 17.8303 31.6936 17.834 31.6976C19.1575 33.146 21.4962 34 24.0132 34C26.6364 34 29.0811 33.0703 30.3684 31.494ZM23.8678 30.9918C25.2736 30.9981 26.6653 30.6733 28.9027 30.0815C28.8928 30.1031 28.8828 30.1236 28.8727 30.1426C28.8452 30.1946 28.8248 30.2223 28.8193 30.2289C28.0331 31.1916 26.2582 32 24.0132 32C21.8715 32 20.1453 31.2622 19.3105 30.3485C19.2797 30.3148 19.2493 30.2829 19.226 30.2583L19.2243 30.2565C19.2057 30.237 19.1912 30.2216 19.1782 30.2077L19.1636 30.1919C19.1321 30.1575 19.1229 30.1447 19.1224 30.1439C19.1206 30.1411 19.1184 30.1378 19.1162 30.134C21.1823 30.6703 22.5107 30.9857 23.8678 30.9918Z" fill="black"/>
<path fill-rule="evenodd" clip-rule="evenodd" d="M42 24C42 33.9411 33.9411 42 24 42C14.0589 42 6 33.9411 6 24C6 14.0589 14.0589 6 24 6C33.9411 6 42 14.0589 42 24ZM40 24C40 32.8366 32.8366 40 24 40C15.1634 40 8 32.8366 8 24C8 15.1634 15.1634 8 24 8C32.8366 8 40 15.1634 40 24Z" fill="black"/>
</svg>

<svg
  xmlns="http://www.w3.org/2000/svg"
  width="24"
  height="24"
  viewBox="0 0 24 24"
  fill="none"
  stroke="currentColor"
  stroke-width="2"
  stroke-linecap="round"
  stroke-linejoin="round"
>
  <path d="M21.286 21.915c.107.398.146.835.016 1.193a.5.5 0 0 1-.728.257 7 7 0 0 1-.766-.557l-.194-.158c-.18-.148-.355-.29-.535-.425-.502-.375-.9-.573-1.245-.556-.362.018-.8.271-1.362.715-.159.125-.329.267-.505.415-.388.324-.808.675-1.207.931a.5.5 0 0 1-.766-.352c-.05-.365.026-.821.169-1.267.146-.458.38-.956.695-1.416.62-.907 1.626-1.762 2.973-1.706 1.3.055 2.264.817 2.844 1.647.292.416.498.863.61 1.279" />
  <path d="M26.63 21.915c-.108.398-.147.835-.017 1.193a.5.5 0 0 0 .729.257c.262-.158.521-.36.765-.557l.194-.158.002-.001c.18-.147.354-.29.534-.424.501-.375.9-.573 1.244-.556.363.018.8.271 1.363.715.158.125.328.267.505.415.387.324.807.675 1.207.931a.5.5 0 0 0 .765-.352c.05-.365-.026-.821-.168-1.267a5.6 5.6 0 0 0-.695-1.416c-.62-.907-1.627-1.762-2.974-1.706-1.3.055-2.263.817-2.844 1.647a4.2 4.2 0 0 0-.61 1.279" />
  <path
    fill-rule="evenodd"
    d="M30.368 31.494a2.9 2.9 0 0 0 .472-.878c.105-.308.189-.703.15-1.107-.04-.416-.23-.956-.779-1.277-.508-.297-1.096-.268-1.616-.138l-.014.004c-2.396.636-3.569.899-4.704.894-1.138-.005-2.285-.28-4.639-.893-.454-.128-.995-.159-1.476.13-.497.3-.682.788-.738 1.155-.055.364-.008.727.067 1.02.076.296.201.602.371.855a3.4 3.4 0 0 0 .372.439C19.157 33.146 21.496 34 24.014 34c2.622 0 5.067-.93 6.354-2.506m-6.5-.502c1.406.006 2.797-.319 5.035-.91l-.03.06a1 1 0 0 1-.054.087c-.786.963-2.56 1.771-4.806 1.771-2.142 0-3.868-.738-4.703-1.651q-.047-.052-.084-.09l-.002-.003-.046-.048-.014-.016-.042-.048-.006-.01c2.066.536 3.395.852 4.752.858"
    clip-rule="evenodd"
  />
  <path
    fill-rule="evenodd"
    d="M42 24c0 9.941-8.059 18-18 18S6 33.941 6 24 14.059 6 24 6s18 8.059 18 18m-2 0c0 8.837-7.163 16-16 16S8 32.837 8 24 15.163 8 24 8s16 7.163 16 16"
    clip-rule="evenodd"
  />
</svg>
